X: 3142
T: MISS HENNY Mc KENZIE
Q: "Reel."
R: Reel.
%R: reel
B: James Kerr "Merry Melodies" v.3 p.17 #142
Z: 2016 John Chambers <jc:trillian.mit.edu>
N: The key signature is clearly wrong, since all the C notes are sharped.
Q:"Reel."
M: C
L: 1/8
K: Am
ue |\
A/A/A (^cA) dBcA | Bggd BGGB |\
A/A/A (^cA) dBcA | Baae ^cAA ::\
^g |\
ae^ca eaca |
Bggd BGGg |\
[1 ae^ca eaca | Baae ^cAA :|\
[2 a^fge fde^c | ^faae ^cAA |]

%%sep 1 1 500
%%sep 1 1 500

